images/technologies/webpack.svg

<svg width="120" height="120" viewBox="0 0 120 120" fill="none" xmlns="http://www.w3.org/2000/svg">
<path d="M101.829 86.8021L61.6847 109.513V91.8284L86.6979 78.0652L101.829 86.8021ZM104.579 84.3152V36.8284L89.8952 45.3152V75.8415L104.579 84.3152ZM18.0137 86.8021L58.1584 109.513V91.8284L33.1321 78.0652L18.0137 86.8021ZM15.2637 84.3152V36.8284L29.9479 45.3152V75.8415L15.2637 84.3152ZM16.9874 33.7494L58.1584 10.46V27.5521L31.7768 42.0652L31.5663 42.1836L16.9874 33.7494ZM102.856 33.7494L61.6847 10.46V27.5521L88.0663 42.0521L88.2768 42.1705L102.856 33.7494Z" fill="#D1D2D6"/>
<path d="M58.1574 87.8019L33.4731 74.2229V47.3414L58.1574 61.5914V87.8019ZM61.6837 87.8019L86.3679 74.2361V47.3414L61.6837 61.5914V87.8019ZM35.1442 44.2361L59.9205 30.6177L84.6968 44.2361L59.9205 58.5387L35.1442 44.2361Z" fill="#D1D2D6"/>
</svg>

<svg width="120" height="120" fill="none" xmlns="http://www.w3.org/2000/svg"><path d="M101.829 86.802l-40.144 22.711V91.828l25.013-13.763 15.131 8.737zm2.75-2.487V36.828l-14.684 8.487v30.526l14.684 8.474zm-86.565 2.487l40.144 22.711V91.828L33.132 78.065l-15.118 8.737zm-2.75-2.487V36.828l14.684 8.487v30.526l-14.684 8.474zm1.723-50.566L58.158 10.46v17.092L31.777 42.065l-.21.119-14.58-8.435zm85.869 0L61.685 10.46v17.092l26.381 14.5.21.118 14.58-8.42zM58.157 87.802l-24.684-13.58v-26.88l24.684 14.25v26.21zm3.527 0l24.684-13.566V47.341l-24.684 14.25v26.21zm-26.54-43.566L59.92 30.618l24.777 13.618L59.92 58.54 35.144 44.236z" fill="#D1D2D6"/></svg>
